X:1
T:Polsk
T:(Totakt-pols, nr. HCA-241)
S:efter Hans Christian Andersen
O:Agerkrog, Tistrup, Ribe amt
R:Totakt-pols
Z:ABC-transkribering av Åke Persson
M:2/4
L:1/8
Q:1/4=100
K:D
|: z(3A/B/c/ | dFAd | cdef | gece | d/e/f/g/ aA | dFAd | cdef | ge d/c/B/c/ | d2 :|
|: fg | agfe | dfga | bgec | d/e/f/g/ ab | agfe | dbag | face | d2  :|

